Yaru++/devices/32/input-gaming.svg

<svg height="32" width="32" xmlns="http://www.w3.org/2000/svg" xmlns:xlink="http://www.w3.org/1999/xlink"><linearGradient id="a" gradientTransform="matrix(0 1 -1 0 164.00049 -319.00049)" gradientUnits="userSpaceOnUse" x1="324" x2="348" y1="149" y2="149"><stop offset="0" stop-color="#fff"/><stop offset=".125" stop-color="#fff" stop-opacity=".098039"/><stop offset=".92500001" stop-color="#fff" stop-opacity=".098039"/><stop offset="1" stop-color="#fff" stop-opacity=".498039"/></linearGradient><path d="m31 16.19336c0-1.42096-.0308-2.54883-.19141-3.50586-.16064-.95703-.4726-1.79146-1.09179-2.412111-.61919-.6206495-1.45612-.9364695-2.41407-1.0956995-.95795-.15924-2.08705-.18666-3.51171-.17969h-7.79102-7.79688c-1.42131-.007-2.5495.0207-3.50585.17969-.95796.15923-1.79488.47505-2.41407 1.0956995-.61919.620651-.93115 1.455081-1.09179 2.412111-.16065.95703-.19141 2.0849-.19141 3.50586v3.61523c0 1.42097.0307 2.54669.19141 3.50196.16075.95527.47425 1.78779 1.09375 2.40625.6195.61845 1.45363.93134 2.41015 1.09179.95653.16046 2.08403.19141 3.50781.19141h7.79688 7.79688c1.42378 0 2.55128-.031 3.50781-.19141.95653-.16045 1.79065-.47334 2.41015-1.09179.61951-.61846.933-1.45098 1.09375-2.40625.16076-.95527.19141-2.08099.19141-3.50196z" opacity=".1"/><path d="m30.5005 15.07459c0-5.5617505-.58409-6.6037005-6.28227-6.5744705h-8.21765-8.21781c-5.69818-.0293-6.28227 1.01272-6.28227 6.5744705v3.85044c0 5.56037.58403 6.57447 6.28227 6.57447h8.21781 8.21765c5.69824 0 6.28227-1.0141 6.28227-6.57447z" fill="#e3dfd5"/><g enable-background="new" transform="translate(-319.9999 -131.00048)"><path d="m345.49981 146.00039a1.4998051 1.4998051 0 0 0 -1.49981 1.49981 1.4998051 1.4998051 0 0 0 1.49981 1.4998 1.4998051 1.4998051 0 0 0 1.49981-1.4998 1.4998051 1.4998051 0 0 0 -1.49981-1.49981z" fill="#0e8420"/><path d="m339.5002 146a1.4998088 1.4998088 0 0 0 -1.49981 1.4998 1.4998088 1.4998088 0 0 0 1.49981 1.4998 1.4998088 1.4998088 0 0 0 1.4998-1.4998 1.4998088 1.4998088 0 0 0 -1.4998-1.4998z" fill="#c7162b"/><path d="m342.49982 149.00038a1.4998096 1.4998096 0 0 0 -1.49982 1.49981 1.4998096 1.4998096 0 0 0 1.49982 1.49981 1.4998096 1.4998096 0 0 0 1.4998-1.49981 1.4998096 1.4998096 0 0 0 -1.4998-1.49981z" fill="#335280"/><path d="m342.49982 143.00038a1.4998088 1.4998088 0 0 0 -1.49982 1.49981 1.4998088 1.4998088 0 0 0 1.49982 1.49981 1.4998088 1.4998088 0 0 0 1.4998-1.49981 1.4998088 1.4998088 0 0 0 -1.4998-1.49981z" fill="#f99b11"/></g><path d="m7.9923 12.74914c0-.42189.32722-.75001.74795-.75001h1.4959c.42072 0 .74796.32812.74796.75001l.00077 2.24998h2.24309c.42072 0 .77252.23447.77252.65635v1.54687c0 .42188-.35179.79679-.77252.79679h-2.24386v2.24999c0 .56251-.32724.75001-.74796.75001h-1.4959c-.42073 0-.74795-.1875-.74795-.75001v-2.24999h-2.24386c-.42071 0-.74795-.32814-.74795-.75001v-1.49998c-.00003-.42187.32724-.75001.74795-.75001h2.24386z" fill="#5d5d5d"/><g enable-background="new" fill="#aea795"><circle cx="18.0005" cy="22.99952" opacity=".5" r="1"/><circle cx="14.0005" cy="22.99952" opacity=".5" r="1"/></g><path d="m30.5005 15.07459c0-5.5617505-.58409-6.6037005-6.28227-6.5744705h-8.21765-8.21781c-5.69818-.0293-6.28227 1.01272-6.28227 6.5744705v3.85044c0 5.56037.58403 6.57447 6.28227 6.57447h8.21781 8.21765c5.69824 0 6.28227-1.0141 6.28227-6.57447z" fill="none" opacity=".4" stroke="#000"/><path d="m7.77979 8.9995095c-1.40927-.007-2.48645.0555-3.2793.22266-.79285.16714-1.28265.42298-1.625.8027305-.6847.7595-.875 2.28546-.875 5.04883v3.85156c0 2.76268.19058 4.28069.875 5.03711.34221.37821.83141.63407 1.625.80273.79359.16868 1.91346-.099 3.2832.23438h8.2168 8.2168c1.40973 0 2.48961-.0657 3.2832-.23438.79359-.16866 1.28279-.42452 1.625-.80273.68442-.75642.875-2.27443.875-5.03711v-3.85156c0-2.76337-.1903-4.28934-.875-5.04883-.34235-.3797405-.83215-.6355905-1.625-.8027305-.79285-.16716-1.87003-.22966-3.2793-.22266h-.002-8.2187-8.21875zm6.35742 1.0429705c2.72221-.003 5.44385-.002 8.16601.0156 1.70821.0756 3.46996-.1250805 5.16016.248049.89252.116331 1.3083 1.035211 1.3457 1.839841.1306 4.99243.0357 2.00437.0645 7.00782-.065 1.35024.25513 2.82596-.50586 4.03515-.63638.68531-1.70424.58192-2.5586.70508-5.32545.1332-10.65874.0725-15.99218.0644-1.87955-.0864-3.84814.16741-5.67774-.40625-.91711-.35573-.90353-1.53315-.98633-2.35546-.13787-4.66511-.0284-1.3606-.0254-6.03321.0729-1.25154-.10561-2.54476.21485-3.76758.18398-.91079 1.18819-1.160381 1.97851-1.238281 2.9379-.1598495 5.87168-.0797 8.81641-.11523z" fill="url(#a)" opacity=".7"/></svg>

<?xml version="1.0" encoding="UTF-8" standalone="no"?>
<svg
   xmlns:dc="http://purl.org/dc/elements/1.1/"
   xmlns:cc="http://creativecommons.org/ns#"
   xmlns:rdf="http://www.w3.org/1999/02/22-rdf-syntax-ns#"
   xmlns:svg="http://www.w3.org/2000/svg"
   xmlns="http://www.w3.org/2000/svg"
   xmlns:xlink="http://www.w3.org/1999/xlink"
   xmlns:sodipodi="http://sodipodi.sourceforge.net/DTD/sodipodi-0.dtd"
   xmlns:inkscape="http://www.inkscape.org/namespaces/inkscape"
   width="32"
   height="32"
   version="1.1"
   id="svg8"
   sodipodi:docname="input-keyboard.svg"
   inkscape:version="0.92.4 (5da689c313, 2019-01-14)">
  <metadata
     id="metadata14">
    <rdf:RDF>
      <cc:Work
         rdf:about="">
        <dc:format>image/svg+xml</dc:format>
        <dc:type
           rdf:resource="http://purl.org/dc/dcmitype/StillImage" />
        <dc:title></dc:title>
      </cc:Work>
    </rdf:RDF>
  </metadata>
  <defs
     id="defs12">
    <clipPath
       clipPathUnits="userSpaceOnUse"
       id="clipPath959">
      <path
         style="color:#000000;display:inline;overflow:visible;visibility:visible;opacity:1;fill:#46a926;fill-opacity:1;fill-rule:nonzero;stroke:none;stroke-width:2;stroke-miterlimit:4;stroke-dasharray:none;stroke-opacity:1;marker:none;enable-background:accumulate"
         d="m 330.1929,133.99999 c -5.61538,0 -6.21958,0.57678 -6.19206,6.20352 v 7.79648 7.79648 c -0.0276,5.62673 0.57668,6.20351 6.19206,6.20351 h 11.615 c 5.6154,0 6.19208,-0.5767 6.19208,-6.20351 v -7.79648 -7.79648 c 0,-5.6268 -0.5767,-6.20352 -6.19208,-6.20352 z"
         id="path961"
         inkscape:connector-curvature="0"
         sodipodi:nodetypes="scccssscsss" />
    </clipPath>
    <clipPath
       clipPathUnits="userSpaceOnUse"
       id="clipPath959-3">
      <path
         style="color:#000000;display:inline;overflow:visible;visibility:visible;opacity:1;fill:#46a926;fill-opacity:1;fill-rule:nonzero;stroke:none;stroke-width:2;stroke-miterlimit:4;stroke-dasharray:none;stroke-opacity:1;marker:none;enable-background:accumulate"
         d="m 330.1929,133.99999 c -5.61538,0 -6.21958,0.57678 -6.19206,6.20352 v 7.79648 7.79648 c -0.0276,5.62673 0.57668,6.20351 6.19206,6.20351 h 11.615 c 5.6154,0 6.19208,-0.5767 6.19208,-6.20351 v -7.79648 -7.79648 c 0,-5.6268 -0.5767,-6.20352 -6.19208,-6.20352 z"
         id="path961-6"
         inkscape:connector-curvature="0"
         sodipodi:nodetypes="scccssscsss" />
    </clipPath>
    <clipPath
       clipPathUnits="userSpaceOnUse"
       id="clipPath959-7">
      <path
         style="color:#000000;display:inline;overflow:visible;visibility:visible;opacity:1;fill:#46a926;fill-opacity:1;fill-rule:nonzero;stroke:none;stroke-width:2;stroke-miterlimit:4;stroke-dasharray:none;stroke-opacity:1;marker:none;enable-background:accumulate"
         d="m 330.1929,133.99999 c -5.61538,0 -6.21958,0.57678 -6.19206,6.20352 v 7.79648 7.79648 c -0.0276,5.62673 0.57668,6.20351 6.19206,6.20351 h 11.615 c 5.6154,0 6.19208,-0.5767 6.19208,-6.20351 v -7.79648 -7.79648 c 0,-5.6268 -0.5767,-6.20352 -6.19208,-6.20352 z"
         id="path961-5"
         inkscape:connector-curvature="0"
         sodipodi:nodetypes="scccssscsss" />
    </clipPath>
    <clipPath
       clipPathUnits="userSpaceOnUse"
       id="clipPath959-35">
      <path
         style="color:#000000;display:inline;overflow:visible;visibility:visible;opacity:1;fill:#46a926;fill-opacity:1;fill-rule:nonzero;stroke:none;stroke-width:2;stroke-miterlimit:4;stroke-dasharray:none;stroke-opacity:1;marker:none;enable-background:accumulate"
         d="m 330.1929,133.99999 c -5.61538,0 -6.21958,0.57678 -6.19206,6.20352 v 7.79648 7.79648 c -0.0276,5.62673 0.57668,6.20351 6.19206,6.20351 h 11.615 c 5.6154,0 6.19208,-0.5767 6.19208,-6.20351 v -7.79648 -7.79648 c 0,-5.6268 -0.5767,-6.20352 -6.19208,-6.20352 z"
         id="path961-62"
         inkscape:connector-curvature="0"
         sodipodi:nodetypes="scccssscsss" />
    </clipPath>
    <clipPath
       clipPathUnits="userSpaceOnUse"
       id="clipPath959-9">
      <path
         style="color:#000000;display:inline;overflow:visible;visibility:visible;opacity:1;fill:#46a926;fill-opacity:1;fill-rule:nonzero;stroke:none;stroke-width:2;stroke-miterlimit:4;stroke-dasharray:none;stroke-opacity:1;marker:none;enable-background:accumulate"
         d="m 330.1929,133.99999 c -5.61538,0 -6.21958,0.57678 -6.19206,6.20352 v 7.79648 7.79648 c -0.0276,5.62673 0.57668,6.20351 6.19206,6.20351 h 11.615 c 5.6154,0 6.19208,-0.5767 6.19208,-6.20351 v -7.79648 -7.79648 c 0,-5.6268 -0.5767,-6.20352 -6.19208,-6.20352 z"
         id="path961-1"
         inkscape:connector-curvature="0"
         sodipodi:nodetypes="scccssscsss" />
    </clipPath>
    <clipPath
       clipPathUnits="userSpaceOnUse"
       id="clipPath959-2">
      <path
         style="color:#000000;display:inline;overflow:visible;visibility:visible;opacity:1;fill:#46a926;fill-opacity:1;fill-rule:nonzero;stroke:none;stroke-width:2;stroke-miterlimit:4;stroke-dasharray:none;stroke-opacity:1;marker:none;enable-background:accumulate"
         d="m 330.1929,133.99999 c -5.61538,0 -6.21958,0.57678 -6.19206,6.20352 v 7.79648 7.79648 c -0.0276,5.62673 0.57668,6.20351 6.19206,6.20351 h 11.615 c 5.6154,0 6.19208,-0.5767 6.19208,-6.20351 v -7.79648 -7.79648 c 0,-5.6268 -0.5767,-6.20352 -6.19208,-6.20352 z"
         id="path961-7"
         inkscape:connector-curvature="0"
         sodipodi:nodetypes="scccssscsss" />
    </clipPath>
    <clipPath
       clipPathUnits="userSpaceOnUse"
       id="clipPath1052">
      <path
         sodipodi:nodetypes="scccssscsss"
         inkscape:connector-curvature="0"
         id="path1054"
         d="m 333.1929,133.99999 c -5.61538,0 -6.21958,0.57678 -6.19206,6.20352 v 5.79648 5.79648 c -0.0276,5.62673 0.57668,6.20351 6.19206,6.20351 h 5.615 c 5.6154,0 6.19208,-0.5767 6.19208,-6.20351 v -5.79648 -5.79648 c 0,-5.6268 -0.5767,-6.20352 -6.19208,-6.20352 z"
         style="color:#000000;display:inline;overflow:visible;visibility:visible;opacity:1;fill:#46a926;fill-opacity:1;fill-rule:nonzero;stroke:none;stroke-width:2;stroke-miterlimit:4;stroke-dasharray:none;stroke-opacity:1;marker:none;enable-background:accumulate" />
    </clipPath>
    <clipPath
       clipPathUnits="userSpaceOnUse"
       id="clipPath1070">
      <path
         sodipodi:nodetypes="ccccccccc"
         inkscape:connector-curvature="0"
         id="path1072"
         d="m 350.9998,152.99999 c 0,5.00001 -1.95653,4.9417 -7,5.00001 H 328 c -5.04347,-0.0583 -7,0 -7,-5.00001 v -11.0002 c 0,-5.00001 1.95653,-4.9417 7,-5.00001 h 15.9998 c 5.04347,0.0583 7,0 7,5.00001 z"
         style="color:#000000;display:inline;overflow:visible;visibility:visible;opacity:0.2;fill:#cdcdcd;fill-opacity:1;fill-rule:nonzero;stroke:none;stroke-width:2;stroke-linecap:butt;stroke-linejoin:miter;stroke-miterlimit:4;stroke-dasharray:none;stroke-dashoffset:0;stroke-opacity:1;marker:none;enable-background:accumulate" />
    </clipPath>
    <clipPath
       clipPathUnits="userSpaceOnUse"
       id="clipPath1070-3">
      <path
         sodipodi:nodetypes="ccccccccc"
         inkscape:connector-curvature="0"
         id="path1072-6"
         d="m 350.9998,152.99999 c 0,5.00001 -1.95653,4.9417 -7,5.00001 H 328 c -5.04347,-0.0583 -7,0 -7,-5.00001 v -11.0002 c 0,-5.00001 1.95653,-4.9417 7,-5.00001 h 15.9998 c 5.04347,0.0583 7,0 7,5.00001 z"
         style="color:#000000;display:inline;overflow:visible;visibility:visible;opacity:0.2;fill:#cdcdcd;fill-opacity:1;fill-rule:nonzero;stroke:none;stroke-width:2;stroke-linecap:butt;stroke-linejoin:miter;stroke-miterlimit:4;stroke-dasharray:none;stroke-dashoffset:0;stroke-opacity:1;marker:none;enable-background:accumulate" />
    </clipPath>
    <clipPath
       clipPathUnits="userSpaceOnUse"
       id="clipPath1070-36">
      <path
         sodipodi:nodetypes="ccccccccc"
         inkscape:connector-curvature="0"
         id="path1072-7"
         d="m 350.9998,152.99999 c 0,5.00001 -1.95653,4.9417 -7,5.00001 H 328 c -5.04347,-0.0583 -7,0 -7,-5.00001 v -11.0002 c 0,-5.00001 1.95653,-4.9417 7,-5.00001 h 15.9998 c 5.04347,0.0583 7,0 7,5.00001 z"
         style="color:#000000;display:inline;overflow:visible;visibility:visible;opacity:0.2;fill:#cdcdcd;fill-opacity:1;fill-rule:nonzero;stroke:none;stroke-width:2;stroke-linecap:butt;stroke-linejoin:miter;stroke-miterlimit:4;stroke-dasharray:none;stroke-dashoffset:0;stroke-opacity:1;marker:none;enable-background:accumulate" />
    </clipPath>
    <linearGradient
       inkscape:collect="always"
       xlink:href="#linearGradient927"
       id="linearGradient4882-7"
       x1="324"
       y1="149"
       x2="348"
       y2="149"
       gradientUnits="userSpaceOnUse"
       gradientTransform="rotate(90,241.50049,-77.5)" />
    <linearGradient
       inkscape:collect="always"
       id="linearGradient927">
      <stop
         style="stop-color:#ffffff;stop-opacity:1;"
         offset="0"
         id="stop923" />
      <stop
         id="stop933"
         offset="0.125"
         style="stop-color:#ffffff;stop-opacity:0.09803922" />
      <stop
         id="stop931"
         offset="0.92500001"
         style="stop-color:#ffffff;stop-opacity:0.09803922" />
      <stop
         style="stop-color:#ffffff;stop-opacity:0.49803922"
         offset="1"
         id="stop925" />
    </linearGradient>
  </defs>
  <sodipodi:namedview
     pagecolor="#ffffff"
     bordercolor="#666666"
     borderopacity="1"
     objecttolerance="10"
     gridtolerance="10"
     guidetolerance="10"
     inkscape:pageopacity="0"
     inkscape:pageshadow="2"
     inkscape:window-width="1920"
     inkscape:window-height="1016"
     id="namedview10"
     showgrid="false"
     inkscape:zoom="26.21875"
     inkscape:cx="16"
     inkscape:cy="16"
     inkscape:window-x="0"
     inkscape:window-y="27"
     inkscape:window-maximized="1"
     inkscape:current-layer="svg8" />
  <path
     style="color:#000000;font-style:normal;font-variant:normal;font-weight:normal;font-stretch:normal;font-size:medium;line-height:normal;font-family:sans-serif;font-variant-ligatures:normal;font-variant-position:normal;font-variant-caps:normal;font-variant-numeric:normal;font-variant-alternates:normal;font-feature-settings:normal;text-indent:0;text-align:start;text-decoration:none;text-decoration-line:none;text-decoration-style:solid;text-decoration-color:#000000;letter-spacing:normal;word-spacing:normal;text-transform:none;writing-mode:lr-tb;direction:ltr;text-orientation:mixed;dominant-baseline:auto;baseline-shift:baseline;text-anchor:start;white-space:normal;shape-padding:0;clip-rule:nonzero;display:inline;overflow:visible;visibility:visible;opacity:0.1;isolation:auto;mix-blend-mode:normal;color-interpolation:sRGB;color-interpolation-filters:linearRGB;solid-color:#000000;solid-opacity:1;vector-effect:none;fill:#000000;fill-opacity:1;fill-rule:nonzero;stroke:none;stroke-width:2;stroke-linecap:butt;stroke-linejoin:miter;stroke-miterlimit:4;stroke-dasharray:none;stroke-dashoffset:0;stroke-opacity:1;marker:none;color-rendering:auto;image-rendering:auto;shape-rendering:auto;text-rendering:auto;enable-background:accumulate"
     d="M 31,16.19336 C 31,14.7724 30.9692,13.64453 30.80859,12.6875 30.64795,11.73047 30.33599,10.89604 29.7168,10.275389 29.09761,9.6547395 28.26068,9.3389195 27.30273,9.1796895 c -0.95795,-0.15924 -2.08705,-0.18666 -3.51171,-0.17969 H 16 8.20312 c -1.42131,-0.007 -2.5495,0.0207 -3.50585,0.17969 C 3.73931,9.3389195 2.90239,9.6547395 2.2832,10.275389 1.66401,10.89604 1.35205,11.73047 1.19141,12.6875 1.03076,13.64453 1,14.7724 1,16.19336 v 3.61523 c 0,1.42097 0.0307,2.54669 0.19141,3.50196 0.16075,0.95527 0.47425,1.78779 1.09375,2.40625 0.6195,0.61845 1.45363,0.93134 2.41015,1.09179 C 5.65184,26.96905 6.77934,27 8.20312,27 H 16 23.79688 c 1.42378,0 2.55128,-0.031 3.50781,-0.19141 0.95653,-0.16045 1.79065,-0.47334 2.41015,-1.09179 0.61951,-0.61846 0.933,-1.45098 1.09375,-2.40625 C 30.96935,22.35528 31,21.22956 31,19.80859 Z"
     id="path999"
     inkscape:connector-curvature="0"
     sodipodi:nodetypes="scscccccscsscccscscscss"
     clip-path="none" />
  <path
     style="color:#000000;display:inline;overflow:visible;visibility:visible;fill:#e3dfd5;fill-opacity:1;fill-rule:nonzero;stroke:none;stroke-width:1;marker:none;enable-background:accumulate"
     d="m 30.5005,15.07459 c 0,-5.5617505 -0.58409,-6.6037005 -6.28227,-6.5744705 H 16.00058 7.78277 C 2.08459,8.4708195 1.5005,9.5128395 1.5005,15.07459 v 3.85044 c 0,5.56037 0.58403,6.57447 6.28227,6.57447 h 8.21781 8.21765 c 5.69824,0 6.28227,-1.0141 6.28227,-6.57447 z"
     id="path964-7"
     inkscape:connector-curvature="0"
     sodipodi:nodetypes="scccssscsss"
     clip-path="none" />
  <g
     style="display:inline;enable-background:new"
     id="g1069"
     transform="translate(-319.9999,-131.00048)">
    <path
       inkscape:export-ydpi="190"
       inkscape:export-xdpi="190"
       id="path919-7-4-4"
       d="M 345.49981,146.00039 A 1.4998051,1.4998051 0 0 0 344,147.5002 1.4998051,1.4998051 0 0 0 345.49981,149 a 1.4998051,1.4998051 0 0 0 1.49981,-1.4998 1.4998051,1.4998051 0 0 0 -1.49981,-1.49981 z"
       style="display:inline;opacity:1;fill:#0e8420;fill-opacity:1;stroke:none;stroke-width:0.12498375;stroke-linecap:butt;stroke-linejoin:miter;stroke-miterlimit:4;stroke-dasharray:none;stroke-dashoffset:1;stroke-opacity:1;enable-background:new"
       inkscape:connector-curvature="0" />
    <path
       inkscape:export-ydpi="190"
       inkscape:export-xdpi="190"
       id="path1432-7-0-7"
       d="m 339.5002,146 a 1.4998088,1.4998088 0 0 0 -1.49981,1.4998 1.4998088,1.4998088 0 0 0 1.49981,1.4998 A 1.4998088,1.4998088 0 0 0 341,147.4998 1.4998088,1.4998088 0 0 0 339.5002,146 Z"
       style="display:inline;opacity:1;fill:#c7162b;fill-opacity:1;stroke:none;stroke-width:0.12498406;stroke-linecap:butt;stroke-linejoin:miter;stroke-miterlimit:4;stroke-dasharray:none;stroke-dashoffset:1;stroke-opacity:1;enable-background:new"
       inkscape:connector-curvature="0" />
    <path
       inkscape:export-ydpi="190"
       inkscape:export-xdpi="190"
       inkscape:connector-curvature="0"
       style="display:inline;opacity:1;fill:#335280;fill-opacity:1;stroke:none;stroke-width:0.12498413;stroke-linecap:butt;stroke-linejoin:miter;stroke-miterlimit:4;stroke-dasharray:none;stroke-dashoffset:1;stroke-opacity:1;enable-background:new"
       d="M 342.49982,149.00038 A 1.4998096,1.4998096 0 0 0 341,150.50019 1.4998096,1.4998096 0 0 0 342.49982,152 a 1.4998096,1.4998096 0 0 0 1.4998,-1.49981 1.4998096,1.4998096 0 0 0 -1.4998,-1.49981 z"
       id="path956-6-5-7" />
    <path
       inkscape:export-ydpi="190"
       inkscape:export-xdpi="190"
       inkscape:connector-curvature="0"
       style="display:inline;opacity:1;fill:#f99b11;fill-opacity:1;stroke:none;stroke-width:0.12498406;stroke-linecap:butt;stroke-linejoin:miter;stroke-miterlimit:4;stroke-dasharray:none;stroke-dashoffset:1;stroke-opacity:1;enable-background:new"
       d="M 342.49982,143.00038 A 1.4998088,1.4998088 0 0 0 341,144.50019 1.4998088,1.4998088 0 0 0 342.49982,146 a 1.4998088,1.4998088 0 0 0 1.4998,-1.49981 1.4998088,1.4998088 0 0 0 -1.4998,-1.49981 z"
       id="path962-4-9-5" />
  </g>
  <path
     style="display:inline;fill:#5d5d5d;fill-opacity:1;stroke:none;stroke-width:0.14043295px;stroke-linecap:butt;stroke-linejoin:miter;stroke-opacity:1;enable-background:new"
     d="m 7.9923,12.74914 c 0,-0.42189 0.32722,-0.75001 0.74795,-0.75001 h 1.4959 c 0.42072,0 0.74796,0.32812 0.74796,0.75001 l 7.7e-4,2.24998 h 2.24309 c 0.42072,0 0.77252,0.23447 0.77252,0.65635 v 1.54687 c 0,0.42188 -0.35179,0.79679 -0.77252,0.79679 h -2.24386 v 2.24999 c 0,0.56251 -0.32724,0.75001 -0.74796,0.75001 h -1.4959 c -0.42073,0 -0.74795,-0.1875 -0.74795,-0.75001 V 17.99913 H 5.74844 c -0.42071,0 -0.74795,-0.32814 -0.74795,-0.75001 v -1.49998 c -3e-5,-0.42187 0.32724,-0.75001 0.74795,-0.75001 H 7.9923 Z"
     id="path932-4-4"
     inkscape:connector-curvature="0"
     sodipodi:nodetypes="ccccccccccccccccccccc"
     inkscape:export-filename="/home/jupiter007/path932.png"
     inkscape:export-xdpi="90"
     inkscape:export-ydpi="90" />
  <g
     style="display:inline;enable-background:new"
     id="g1148"
     transform="translate(-318.9995,-131.00048)">
    <circle
       r="1"
       cy="154"
       cx="337"
       id="path1032-1-9-1"
       style="display:inline;opacity:0.5;fill:#aea795;fill-opacity:1;fill-rule:nonzero;stroke:none;stroke-width:0.00026937;stroke-linecap:butt;stroke-linejoin:round;stroke-miterlimit:4;stroke-dasharray:none;stroke-dashoffset:0;stroke-opacity:1;enable-background:new" />
    <circle
       style="display:inline;opacity:0.5;fill:#aea795;fill-opacity:1;fill-rule:nonzero;stroke:none;stroke-width:0.00026937;stroke-linecap:butt;stroke-linejoin:round;stroke-miterlimit:4;stroke-dasharray:none;stroke-dashoffset:0;stroke-opacity:1;enable-background:new"
       id="circle1034-2-2-2"
       cx="333"
       cy="154"
       r="1" />
  </g>
  <path
     style="color:#000000;display:inline;overflow:visible;visibility:visible;opacity:0.4;fill:none;fill-opacity:1;fill-rule:nonzero;stroke:#000000;stroke-width:1;stroke-miterlimit:4;stroke-dasharray:none;stroke-opacity:1;marker:none;enable-background:accumulate"
     d="m 30.5005,15.07459 c 0,-5.5617505 -0.58409,-6.6037005 -6.28227,-6.5744705 H 16.00058 7.78277 C 2.08459,8.4708195 1.5005,9.5128395 1.5005,15.07459 v 3.85044 c 0,5.56037 0.58403,6.57447 6.28227,6.57447 h 8.21781 8.21765 c 5.69824,0 6.28227,-1.0141 6.28227,-6.57447 z"
     id="path958-1"
     inkscape:connector-curvature="0"
     sodipodi:nodetypes="scccssscsss"
     clip-path="none" />
  <path
     style="color:#000000;display:inline;overflow:visible;visibility:visible;opacity:0.7;fill:url(#linearGradient4882-7);fill-opacity:1;fill-rule:nonzero;stroke:none;stroke-width:1;marker:none;enable-background:accumulate"
     clip-path="none"
     d="m 7.77979,8.9995095 c -1.40927,-0.007 -2.48645,0.0555 -3.2793,0.22266 -0.79285,0.16714 -1.28265,0.42298 -1.625,0.8027305 -0.6847,0.7595 -0.875,2.28546 -0.875,5.04883 v 3.85156 c 0,2.76268 0.19058,4.28069 0.875,5.03711 0.34221,0.37821 0.83141,0.63407 1.625,0.80273 0.79359,0.16868 1.91346,-0.099 3.2832,0.23438 h 8.2168 8.2168 c 1.40973,0 2.48961,-0.0657 3.2832,-0.23438 0.79359,-0.16866 1.28279,-0.42452 1.625,-0.80273 0.68442,-0.75642 0.875,-2.27443 0.875,-5.03711 v -3.85156 c 0,-2.76337 -0.1903,-4.28934 -0.875,-5.04883 -0.34235,-0.3797405 -0.83215,-0.6355905 -1.625,-0.8027305 -0.79285,-0.16716 -1.87003,-0.22966 -3.2793,-0.22266 h -0.002 -8.2187 -8.21875 z m 6.35742,1.0429705 c 2.72221,-0.003 5.44385,-0.002 8.16601,0.0156 1.70821,0.0756 3.46996,-0.1250805 5.16016,0.248049 0.89252,0.116331 1.3083,1.035211 1.3457,1.839841 0.1306,4.99243 0.0357,2.00437 0.0645,7.00782 -0.065,1.35024 0.25513,2.82596 -0.50586,4.03515 -0.63638,0.68531 -1.70424,0.58192 -2.5586,0.70508 -5.32545,0.1332 -10.65874,0.0725 -15.99218,0.0644 C 7.93739,23.87202 5.9688,24.12583 4.1392,23.55217 3.22209,23.19644 3.23567,22.01902 3.15287,21.19671 3.015,16.5316 3.12447,19.83611 3.12747,15.1635 3.20037,13.91196 3.02186,12.61874 3.34232,11.39592 3.5263,10.48513 4.53051,10.235539 5.32083,10.157639 c 2.9379,-0.1598495 5.87168,-0.0797 8.81641,-0.11523 z"
     id="path964-7-6"
     inkscape:connector-curvature="0"
     sodipodi:nodetypes="ccsssscscscssscccccccccccccccccccccc" />
</svg>
